X:1083
T:Silver Wave, The 
C:Joe Buchanan's Scottish Tome - Page 469.0
I:469 0
R:Folk
Z:Carl Allison
L:1/8
M:2/4
K:G
d | g2 (dg) | B/>c/d/>B/ GB | Aa a>g | f/>g/a/>f/ dd |
g2 (dg) | B/>c/d/>B/ GB | Ae d/>c/B/>A/ | GB G :|
[K:D] (A/>G/) | F/>D/F/>A/ f/>e/d/c/ | B/>A/B/>d/ g/>f/e/>d/ | c/>A/c/>e/ a/>g/f/>e/ | d/>c/d/>f/ e (A/>G/) |
F/>D/F/>A/ f/>e/d/c/ | B/>A/B/>d/ g/>f/e/>d/ | c/>A/c/>e/ a/>g/f/>e/ | df d :|
(A/>G/) | FA d(g/>f/) | eB B(e/>d/) | c/>c/c/>c/ Bc/>B/ | BA A(A/>G/) |
FA d(g/>f/) | eB B(e/>d/) | c/>c/c/>c/ Bc | (d2 d) :|
(d/>e/) | f/>g/f/>e/ d/>c/d/>B/ | AF FA | BG Ge | fd d(d/>e/) |
f/>g/f/>e/ d/>c/d/>B/ | AF FA | B/>G/B/>d/ c/>A/c/>e/ | df d :|

